X: 22476
T: Lady Bird Lake
R: reel
M: 4/4
K: Cmajor
|:c3B AGEF|GCCG CFFD|E3B cEGE|D2dc BGcB|
A3 G A/B/c BG|cdef dcBG|Fcec Gcdc|1 GccB cGcB:|2 GccB cGed||
c3B cegc|fgfe dGcB|A3G FAcF|d3c BG eg|
a3g gedc|dege dcBG|Fcag d3c|(c4c)Ged|
c3B cegc|fgfe dGcB|A3G FAcF|d3c BG c'b|
a3g gedc|dege dcBG|Fcag d3c|c6 cB||

